build/assets/footerInsta.svg

<svg width="48" height="48" viewBox="0 0 48 48" fill="none" xmlns="http://www.w3.org/2000/svg">
<path fill-rule="evenodd" clip-rule="evenodd" d="M0 24C0 10.7452 10.7452 0 24 0C37.2548 0 48 10.7452 48 24C48 37.2548 37.2548 48 24 48C10.7452 48 0 37.2548 0 24ZM24.0012 11.2C20.5249 11.2 20.0886 11.2152 18.7233 11.2773C17.3606 11.3397 16.4305 11.5555 15.6166 11.872C14.7747 12.1989 14.0606 12.6363 13.3491 13.348C12.6371 14.0595 12.1997 14.7736 11.8717 15.6152C11.5544 16.4294 11.3384 17.3598 11.2771 18.7219C11.216 20.0873 11.2 20.5238 11.2 24.0001C11.2 27.4764 11.2155 27.9114 11.2773 29.2767C11.34 30.6394 11.5557 31.5695 11.872 32.3834C12.1992 33.2253 12.6365 33.9394 13.3483 34.6509C14.0595 35.3629 14.7736 35.8013 15.615 36.1283C16.4294 36.4448 17.3598 36.6605 18.7222 36.7229C20.0876 36.7851 20.5236 36.8003 23.9996 36.8003C27.4762 36.8003 27.9111 36.7851 29.2765 36.7229C30.6391 36.6605 31.5703 36.4448 32.3848 36.1283C33.2264 35.8013 33.9394 35.3629 34.6506 34.6509C35.3626 33.9394 35.8 33.2253 36.128 32.3837C36.4427 31.5695 36.6587 30.6391 36.7227 29.277C36.784 27.9116 36.8 27.4764 36.8 24.0001C36.8 20.5238 36.784 20.0876 36.7227 18.7222C36.6587 17.3595 36.4427 16.4294 36.128 15.6155C35.8 14.7736 35.3626 14.0595 34.6506 13.348C33.9386 12.636 33.2266 12.1987 32.384 11.872C31.5679 11.5555 30.6373 11.3397 29.2746 11.2773C27.9092 11.2152 27.4746 11.2 23.9972 11.2H24.0012Z" fill="#B0B0B0"/>
<path fill-rule="evenodd" clip-rule="evenodd" d="M22.8529 13.5067C23.1937 13.5062 23.574 13.5067 24.0012 13.5067C27.4188 13.5067 27.8239 13.519 29.1735 13.5803C30.4215 13.6374 31.0989 13.8459 31.5501 14.0211C32.1474 14.2531 32.5733 14.5304 33.021 14.9784C33.469 15.4264 33.7464 15.8531 33.9789 16.4505C34.1541 16.9011 34.3629 17.5785 34.4197 18.8265C34.481 20.1758 34.4944 20.5812 34.4944 23.9972C34.4944 27.4132 34.481 27.8186 34.4197 29.1679C34.3626 30.4159 34.1541 31.0933 33.9789 31.5439C33.7469 32.1413 33.469 32.5666 33.021 33.0144C32.573 33.4624 32.1477 33.7397 31.5501 33.9717C31.0994 34.1477 30.4215 34.3557 29.1735 34.4128C27.8242 34.4741 27.4188 34.4874 24.0012 34.4874C20.5833 34.4874 20.1782 34.4741 18.8289 34.4128C17.5809 34.3552 16.9035 34.1466 16.4521 33.9714C15.8547 33.7394 15.428 33.4621 14.98 33.0141C14.532 32.5661 14.2547 32.1405 14.0222 31.5429C13.847 31.0922 13.6382 30.4149 13.5814 29.1669C13.52 27.8175 13.5078 27.4122 13.5078 23.994C13.5078 20.5758 13.52 20.1726 13.5814 18.8233C13.6384 17.5753 13.847 16.8979 14.0222 16.4467C14.2542 15.8494 14.532 15.4227 14.98 14.9747C15.428 14.5267 15.8547 14.2494 16.4521 14.0168C16.9033 13.8408 17.5809 13.6328 18.8289 13.5755C20.0097 13.5222 20.4673 13.5062 22.8529 13.5035V13.5067ZM30.8338 15.632C29.9858 15.632 29.2978 16.3193 29.2978 17.1675C29.2978 18.0155 29.9858 18.7035 30.8338 18.7035C31.6818 18.7035 32.3698 18.0155 32.3698 17.1675C32.3698 16.3195 31.6818 15.632 30.8338 15.632ZM24.0012 17.4267C20.371 17.4267 17.4278 20.37 17.4278 24.0001C17.4278 27.6303 20.371 30.5722 24.0012 30.5722C27.6314 30.5722 30.5735 27.6303 30.5735 24.0001C30.5735 20.37 27.6314 17.4267 24.0012 17.4267Z" fill="#B0B0B0"/>
<path fill-rule="evenodd" clip-rule="evenodd" d="M24.0012 19.7334C26.3575 19.7334 28.2679 21.6436 28.2679 24.0001C28.2679 26.3564 26.3575 28.2668 24.0012 28.2668C21.6446 28.2668 19.7345 26.3564 19.7345 24.0001C19.7345 21.6436 21.6446 19.7334 24.0012 19.7334Z" fill="#B0B0B0"/>
</svg>

<svg width="48" height="48" fill="none" xmlns="http://www.w3.org/2000/svg"><path fill-rule="evenodd" clip-rule="evenodd" d="M0 24C0 10.745 10.745 0 24 0s24 10.745 24 24-10.745 24-24 24S0 37.255 0 24Zm24.001-12.8c-3.476 0-3.912.015-5.278.077-1.362.063-2.293.279-3.106.595a6.268 6.268 0 0 0-2.268 1.476 6.284 6.284 0 0 0-1.477 2.267c-.318.814-.534 1.745-.595 3.107-.061 1.365-.077 1.802-.077 5.278 0 3.476.016 3.911.077 5.277.063 1.362.279 2.293.595 3.106a6.271 6.271 0 0 0 1.476 2.268 6.268 6.268 0 0 0 2.267 1.477c.814.317 1.745.532 3.107.595 1.366.062 1.802.077 5.278.077 3.476 0 3.911-.015 5.276-.077 1.363-.063 2.294-.278 3.109-.595a6.263 6.263 0 0 0 2.266-1.477 6.284 6.284 0 0 0 1.477-2.267c.315-.814.53-1.745.595-3.107.061-1.365.077-1.8.077-5.277 0-3.476-.016-3.912-.077-5.278-.064-1.363-.28-2.293-.595-3.107a6.283 6.283 0 0 0-1.477-2.267 6.256 6.256 0 0 0-2.267-1.476c-.816-.316-1.747-.532-3.11-.595-1.365-.062-1.8-.077-5.277-.077h.004Z" fill="#B0B0B0"/><path fill-rule="evenodd" clip-rule="evenodd" d="M22.853 13.507H24c3.418 0 3.823.012 5.172.073 1.249.057 1.926.266 2.377.441.597.232 1.023.51 1.471.957.448.448.725.875.958 1.473.175.45.384 1.127.44 2.375.062 1.35.075 1.755.075 5.171 0 3.416-.013 3.822-.074 5.17-.057 1.249-.266 1.926-.441 2.377a3.958 3.958 0 0 1-.958 1.47 3.958 3.958 0 0 1-1.47.958c-.452.176-1.13.384-2.377.44-1.35.062-1.755.075-5.173.075s-3.823-.013-5.172-.074c-1.248-.058-1.925-.266-2.377-.442a3.964 3.964 0 0 1-1.472-.957 3.967 3.967 0 0 1-.958-1.471c-.175-.45-.384-1.128-.44-2.376-.062-1.35-.074-1.755-.074-5.173s.012-3.821.073-5.17c.057-1.249.266-1.926.441-2.377.232-.598.51-1.024.958-1.472a3.973 3.973 0 0 1 1.472-.958c.451-.176 1.129-.384 2.377-.441 1.18-.054 1.638-.07 4.024-.072v.003Zm7.98 2.125a1.536 1.536 0 1 0 0 3.072 1.536 1.536 0 0 0 0-3.072Zm-6.832 1.795a6.574 6.574 0 1 0 0 13.147 6.574 6.574 0 0 0 0-13.147Z" fill="#B0B0B0"/><path fill-rule="evenodd" clip-rule="evenodd" d="M24.001 19.733a4.267 4.267 0 1 1 0 8.534 4.267 4.267 0 0 1 0-8.534Z" fill="#B0B0B0"/></svg>
